svg/furkot/public-domain/tollbooth.svg

<svg viewBox="0 0 512 512" xmlns="http://www.w3.org/2000/svg"><path d="m508.682 294.374c0-8.012-10.777-16.88-19.502-16.988l-14.607-61.348c-3.948-14.853-13.507-27.709-28.938-27.827h-165.719c-12.55.302-25.104 13.159-28.463 27.71l-10.204 42.967h-51.333c-5.494 0-9.948 4.449-9.948 9.943 0 5.488 4.454 9.943 9.948 9.943h40.74c-6.804 2.821-13.087 9.451-13.199 15.595l-.113 60.514c.251 8.13 8.73 16.44 17.234 16.655v56.09c-.113 3.906 4.546 9.282 8.484 9.282h26.102c3.824 0 7.531-6.62 7.531-10.639v-54.738h171.802l-.221 55.04c0 3.789 4.905 10.527 8.843 10.332h26.076c3.958.195 8.258-5.565 8.258-9.283v-56.089c8.51-.215 16.973-8.525 17.342-16.656zm-48.102-16.768-117.806.067c.02-3.625.046-7.306.046-8.837 0-5.494-4.449-9.943-9.943-9.943h-23.952v-7.445c6.508-2.846 11.049-9.328 11.049-16.88 0-10.174-8.248-18.422-18.416-18.422-10.179 0-18.432 8.248-18.432 18.422 0 7.552 4.557 14.039 11.054 16.88v7.44h-31.79l10.122-41.278c.947-3.794 5.985-8.642 9.196-8.642h163.072c3.24 0 8.401 4.956 9.226 8.642l11.627 50.294c.825 3.912-1.449 9.702-5.053 9.702zm-336.62-20.403h46.423v22.103h-46.423zm-121.589-194.637v374.344h113.484v-374.344zm25.553 253.753v-82.238l62.142 41.119zm0-134.114v-82.242l62.142 41.124z"/></svg>

<svg xmlns="http://www.w3.org/2000/svg" viewBox="0 0 512 512"><path d="M508.682 294.374C508.682 286.362 497.905 277.494 489.18 277.386L474.573 216.038C470.625 201.185 461.066 188.329 445.635 188.211H279.916C267.366 188.513 254.812 201.37 251.453 215.921L241.249 258.888H189.916C184.422 258.888 179.968 263.337 179.968 268.831 179.968 274.319 184.422 278.774 189.916 278.774H230.656C223.852 281.595 217.569 288.225 217.457 294.369L217.344 354.883C217.595 363.013 226.074 371.323 234.578 371.538V427.628C234.465 431.534 239.124 436.91 243.062 436.91H269.164C272.988 436.91 276.695 430.29 276.695 426.271V371.533H448.497L448.276 426.573C448.276 430.362 453.181 437.1 457.119 436.905H483.195C487.153 437.1 491.453 431.34 491.453 427.622V371.533C499.963 371.318 508.426 363.008 508.795 354.877L508.682 294.374ZM460.58 277.606L342.774 277.673C342.794 274.048 342.82 270.367 342.82 268.836 342.82 263.342 338.371 258.893 332.877 258.893H308.925V251.448C315.433 248.602 319.974 242.12 319.974 234.568 319.974 224.394 311.726 216.146 301.558 216.146 291.379 216.146 283.126 224.394 283.126 234.568 283.126 242.12 287.683 248.607 294.18 251.448V258.888H262.39L272.512 217.61C273.459 213.816 278.497 208.968 281.708 208.968H444.78C448.02 208.968 453.181 213.924 454.006 217.61L465.633 267.904C466.458 271.816 464.184 277.606 460.58 277.606ZM123.96 257.203H170.383V279.306H123.96ZM2.371 62.566V436.91H115.855V62.566H2.371ZM27.924 316.319V234.081L90.066 275.2 27.924 316.319ZM27.924 182.205V99.963L90.066 141.087 27.924 182.205Z"/></svg>
